src/topics/icons/trace.svg

<svg height="256" preserveAspectRatio="xMidYMid" viewBox="0 0 256 256" width="256" xmlns="http://www.w3.org/2000/svg"><path d="m128 0c-70.6049822 0-128 57.3714286-128 128 0 70.628571 57.3950178 128 128 128 70.83274 0 128-57.371429 128-128 0-70.6285714-57.16726-128-128-128zm83.928826 157.380783c-8.882563 0-16.170819-7.288256-16.170819-16.170819 0-2.960854.911032-5.921708 2.505338-8.427046l-5.466192-5.466192c-2.505338 1.822064-5.69395 2.733096-9.11032 2.733096-2.960854 0-5.466192-.911032-7.971531-2.049822l-6.149466 6.149466c1.594306 2.505338 2.505338 5.238434 2.505338 8.427046 0 2.960855-.911032 5.693951-2.27758 8.199289l5.238434 5.238434c2.505339-1.594306 5.238435-2.27758 8.427047-2.27758 8.882562 0 16.170818 7.288256 16.170818 16.170818 0 8.882563-7.288256 16.170819-16.170818 16.170819-8.882563 0-16.170819-7.288256-16.170819-16.170819 0-2.960854.911032-5.69395 2.27758-7.97153l-5.69395-5.466192c-2.505338 1.366548-5.238434 2.27758-8.199288 2.27758-3.188612 0-5.921708-.911032-8.427046-2.505338l-32.341637 32.569395c1.13879 2.27758 2.049822 4.782918 2.049822 7.516014 0 8.882562-7.288257 16.170819-16.170819 16.170819-8.8825621 0-16.1708184-7.288257-16.1708184-16.170819s7.2882563-16.170818 16.1708184-16.170818c3.188612 0 6.377224.911032 8.882562 2.733096l32.341637-32.113879c-1.366548-2.27758-2.27758-5.010676-2.27758-7.971531 0-8.882562 7.288257-16.170818 16.170819-16.170818 2.960854 0 5.69395.911032 7.97153 2.27758l6.149466-6.149466c-1.594306-2.505338-2.505338-5.466192-2.505338-8.427046 0-3.416371 1.13879-6.377225 2.733096-9.110321l-32.569395-32.3416367c-2.505338 1.594306-5.466192 2.5053381-8.427046 2.5053381-3.188612 0-5.921708-.9110321-8.427046-2.5053381l-3.871886 3.8718861-25.7366551 25.5088966-3.1886121 3.188612c1.594306 2.505338 2.733096 5.466192 2.733096 8.882563 0 3.188612-.911032 5.921708-2.505338 8.427046l6.1494662 6.149466c2.505338-1.822064 5.69395-2.733096 9.11032-2.733096 8.882563 0 16.170819 7.288256 16.170819 16.170818 0 8.882563-7.288256 16.170819-16.170819 16.170819-8.882562 0-16.1708183-7.288256-16.1708183-16.170819 0-2.733096.6832741-5.010676 1.8220641-7.288256l-6.6049822-6.604982c-2.2775801 1.366548-5.0106762 2.27758-7.9715303 2.27758-3.1886121 0-6.3772242-.911032-8.8825622-2.733096l-7.2882563 7.288256c1.1387901 2.049822 1.8220641 4.55516 1.8220641 7.060498 0 8.882563-7.2882562 16.170819-16.1708185 16.170819s-16.1708185-7.288256-16.1708185-16.170819c0-8.882562 7.2882562-16.170818 16.1708185-16.170818 3.4163701 0 6.6049822 1.13879 9.3380783 2.960854l7.0604982-7.060498c-1.13879-2.27758-2.0498221-4.782918-2.0498221-7.516014 0-8.882563 7.2882563-16.1708189 16.1708185-16.1708189 2.7330961 0 5.2384342.683274 7.5160143 2.0498219l3.4163701-3.41637 25.5088963-25.2811388 4.099645-4.0996441c-1.366548-2.2775801-2.049822-5.0106761-2.049822-7.9715302 0-8.8825623 7.288256-16.1708185 16.170818-16.1708185s16.170819 7.2882562 16.170819 16.1708185c0 2.9608541-.911032 5.4661921-2.049823 7.7437722l33.024912 32.7971529c2.27758-1.1387899 4.782918-1.8220639 7.288256-1.8220639 8.882562 0 16.170818 7.2882559 16.170818 16.1708189 0 2.733096-.683274 5.010676-1.822064 7.288256l5.921708 5.921708c2.27758-1.366548 5.010677-2.27758 7.971531-2.27758 8.882562 0 16.170818 7.288256 16.170818 16.170818-.227758 8.427047-7.288256 15.715303-16.170818 15.715303zm-108.185054-8.654804c3.644128 0 6.83274-2.960854 6.83274-6.832741 0-3.644128-2.960854-6.83274-6.83274-6.83274-.683274 0-1.366548.227758-2.049822.455516-2.7330959.911032-4.55516 3.41637-4.55516 6.377224v.227758c-.227758 3.644129 2.7330961 6.604983 6.604982 6.604983zm25.508897-96.1138794c-3.644128 0-6.83274 2.9608541-6.83274 6.8327403v.683274c.227758 2.9608541 2.505338 5.4661921 5.238434 5.9217082.455516 0 .911032.227758 1.366548.227758s.911032 0 1.366548-.227758c2.960854-.6832741 5.010676-2.9608541 5.238434-6.1494662v-.455516c.455516-3.8718862-2.733096-6.8327403-6.377224-6.8327403zm-54.4341637 54.8896794c-3.8718861 0-6.8327402 2.960854-6.8327402 6.832741v.227758c0 2.960854 2.0498221 5.466192 5.0106762 6.377224.683274.227758 1.13879.227758 1.822064.227758h.6832741c2.9608541-.227758 5.2384341-2.505338 5.9217081-5.238434 0-.455516.2277581-.911032.2277581-1.366548 0-.683274 0-1.13879-.2277581-1.822064-1.13879-3.188613-3.6441281-5.238435-6.6049822-5.238435zm-28.4697509 28.241993c-.683274-.227758-1.594306-.455516-2.27758-.455516-3.6441281 0-6.8327402 2.960854-6.8327402 6.83274 0 3.644129 2.9608541 6.832741 6.8327402 6.832741 3.4163701 0 6.3772242-2.733096 6.6049822-6.149467v-.683274c.227758-2.960854-1.8220641-5.466192-4.3274022-6.377224zm56.0284696 54.206406c-.683274-.227758-1.13879-.227758-1.822064-.227758-3.644128 0-6.8327401 2.960854-6.8327401 6.83274 0 3.644128 2.9608541 6.83274 6.8327401 6.83274 3.644128 0 6.83274-2.960854 6.83274-6.83274 0-3.41637-2.27758-5.921708-5.010676-6.604982zm109.551602-55.345196h-.683274c-2.960854.227758-5.238435 2.505338-5.921709 5.466192 0 .455516-.227758.911032-.227758 1.13879 0 3.644129 2.960855 6.832741 6.832741 6.832741 3.644128 0 6.83274-2.960854 6.83274-6.832741 0-3.871886-3.188612-6.604982-6.83274-6.604982zm-28.014235-27.103203h-.227758c-2.960854 0-5.466192 2.049822-6.377224 4.782919-.227758.683274-.455516 1.366548-.455516 2.049822 0 .455516 0 .911032.227758 1.366548.683274 2.960854 2.960854 5.010676 6.149466 5.238434h.455516c.683274 0 1.366548-.227758 2.049822-.455516 2.733096-.911032 4.782918-3.41637 4.782918-6.377224v-.227758c-.227758-3.416371-3.188612-6.377225-6.604982-6.377225zm-27.558719 28.469751h-.683274c-3.644128 0-6.83274 2.960854-6.83274 6.83274v.683274c.227758 2.960855 2.505338 5.238435 5.466192 5.921709.455516 0 .911032.227758 1.366548.227758h.911032c2.960854-.455516 5.238434-2.733096 5.69395-5.693951v-.911032c0-.455516 0-.911032-.227758-1.366548-.227758-2.960854-2.733096-5.238434-5.69395-5.69395zm26.875445 40.540926c3.644128 0 6.83274-2.960855 6.83274-6.832741 0-3.644128-2.960854-6.83274-6.83274-6.83274-.455516 0-.911032 0-1.13879.227758-2.960854.455516-5.010676 2.960854-5.466192 5.921708v.683274c-.227758 3.871886 2.733096 6.832741 6.604982 6.832741z" fill="#40aa94"/></svg>

<?xml version="1.0" encoding="UTF-8"?>
<svg width="256px" height="256px" viewBox="0 0 256 256" version="1.1" xmlns="http://www.w3.org/2000/svg" xmlns:xlink="http://www.w3.org/1999/xlink" preserveAspectRatio="xMidYMid">
    <g>
        <path d="M128,0 C57.3950178,0 0,57.3714286 0,128 C0,198.628571 57.3950178,256 128,256 C198.83274,256 256,198.628571 256,128 C256,57.3714286 198.83274,0 128,0 Z M211.928826,157.380783 C203.046263,157.380783 195.758007,150.092527 195.758007,141.209964 C195.758007,138.24911 196.669039,135.288256 198.263345,132.782918 L192.797153,127.316726 C190.291815,129.13879 187.103203,130.049822 183.686833,130.049822 C180.725979,130.049822 178.220641,129.13879 175.715302,128 L169.565836,134.149466 C171.160142,136.654804 172.071174,139.3879 172.071174,142.576512 C172.071174,145.537367 171.160142,148.270463 169.793594,150.775801 L175.032028,156.014235 C177.537367,154.419929 180.270463,153.736655 183.459075,153.736655 C192.341637,153.736655 199.629893,161.024911 199.629893,169.907473 C199.629893,178.790036 192.341637,186.078292 183.459075,186.078292 C174.576512,186.078292 167.288256,178.790036 167.288256,169.907473 C167.288256,166.946619 168.199288,164.213523 169.565836,161.935943 L163.871886,156.469751 C161.366548,157.836299 158.633452,158.747331 155.672598,158.747331 C152.483986,158.747331 149.75089,157.836299 147.245552,156.241993 L114.903915,188.811388 C116.042705,191.088968 116.953737,193.594306 116.953737,196.327402 C116.953737,205.209964 109.66548,212.498221 100.782918,212.498221 C91.9003559,212.498221 84.6120996,205.209964 84.6120996,196.327402 C84.6120996,187.44484 91.9003559,180.156584 100.782918,180.156584 C103.97153,180.156584 107.160142,181.067616 109.66548,182.88968 L142.007117,150.775801 C140.640569,148.498221 139.729537,145.765125 139.729537,142.80427 C139.729537,133.921708 147.017794,126.633452 155.900356,126.633452 C158.86121,126.633452 161.594306,127.544484 163.871886,128.911032 L163.871886,128.911032 L170.021352,122.761566 C168.427046,120.256228 167.516014,117.295374 167.516014,114.33452 C167.516014,110.918149 168.654804,107.957295 170.24911,105.224199 L137.679715,72.8825623 C135.174377,74.4768683 132.213523,75.3879004 129.252669,75.3879004 C126.064057,75.3879004 123.330961,74.4768683 120.825623,72.8825623 L116.953737,76.7544484 L91.2170819,102.263345 L88.0284698,105.451957 C89.6227758,107.957295 90.7615658,110.918149 90.7615658,114.33452 C90.7615658,117.523132 89.8505338,120.256228 88.2562278,122.761566 L94.405694,128.911032 C96.911032,127.088968 100.099644,126.177936 103.516014,126.177936 C112.398577,126.177936 119.686833,133.466192 119.686833,142.348754 C119.686833,151.231317 112.398577,158.519573 103.516014,158.519573 C94.633452,158.519573 87.3451957,151.231317 87.3451957,142.348754 C87.3451957,139.615658 88.0284698,137.338078 89.1672598,135.060498 L82.5622776,128.455516 C80.2846975,129.822064 77.5516014,130.733096 74.5907473,130.733096 C71.4021352,130.733096 68.2135231,129.822064 65.7081851,128 L58.4199288,135.288256 C59.5587189,137.338078 60.2419929,139.843416 60.2419929,142.348754 C60.2419929,151.231317 52.9537367,158.519573 44.0711744,158.519573 C35.1886121,158.519573 27.9003559,151.231317 27.9003559,142.348754 C27.9003559,133.466192 35.1886121,126.177936 44.0711744,126.177936 C47.4875445,126.177936 50.6761566,127.316726 53.4092527,129.13879 L60.4697509,122.078292 C59.3309609,119.800712 58.4199288,117.295374 58.4199288,114.562278 C58.4199288,105.679715 65.7081851,98.3914591 74.5907473,98.3914591 C77.3238434,98.3914591 79.8291815,99.0747331 82.1067616,100.441281 L85.5231317,97.024911 L111.032028,71.7437722 L115.131673,67.6441281 C113.765125,65.366548 113.081851,62.633452 113.081851,59.6725979 C113.081851,50.7900356 120.370107,43.5017794 129.252669,43.5017794 C138.135231,43.5017794 145.423488,50.7900356 145.423488,59.6725979 C145.423488,62.633452 144.512456,65.13879 143.373665,67.4163701 L176.398577,100.213523 C178.676157,99.0747331 181.181495,98.3914591 183.686833,98.3914591 C192.569395,98.3914591 199.857651,105.679715 199.857651,114.562278 C199.857651,117.295374 199.174377,119.572954 198.035587,121.850534 L203.957295,127.772242 C206.234875,126.405694 208.967972,125.494662 211.928826,125.494662 C220.811388,125.494662 228.099644,132.782918 228.099644,141.66548 C227.871886,150.092527 220.811388,157.380783 211.928826,157.380783 Z M103.743772,148.725979 C107.3879,148.725979 110.576512,145.765125 110.576512,141.893238 C110.576512,138.24911 107.615658,135.060498 103.743772,135.060498 C103.060498,135.060498 102.377224,135.288256 101.69395,135.516014 C98.9608541,136.427046 97.13879,138.932384 97.13879,141.893238 L97.13879,142.120996 C96.911032,145.765125 99.8718861,148.725979 103.743772,148.725979 Z M129.252669,52.6120996 C125.608541,52.6120996 122.419929,55.5729537 122.419929,59.4448399 L122.419929,60.1281139 C122.647687,63.088968 124.925267,65.594306 127.658363,66.0498221 C128.113879,66.0498221 128.569395,66.2775801 129.024911,66.2775801 C129.480427,66.2775801 129.935943,66.2775801 130.391459,66.0498221 C133.352313,65.366548 135.402135,63.088968 135.629893,59.9003559 L135.629893,59.4448399 C136.085409,55.5729537 132.896797,52.6120996 129.252669,52.6120996 Z M74.8185053,107.501779 C74.8185053,107.501779 74.5907473,107.501779 74.8185053,107.501779 C70.9466192,107.501779 67.9857651,110.462633 67.9857651,114.33452 C67.9857651,114.33452 67.9857651,114.33452 67.9857651,114.562278 C67.9857651,117.523132 70.0355872,120.02847 72.9964413,120.939502 C73.6797153,121.16726 74.1352313,121.16726 74.8185053,121.16726 L75.5017794,121.16726 C78.4626335,120.939502 80.7402135,118.661922 81.4234875,115.928826 C81.4234875,115.47331 81.6512456,115.017794 81.6512456,114.562278 C81.6512456,113.879004 81.6512456,113.423488 81.4234875,112.740214 C80.2846975,109.551601 77.7793594,107.501779 74.8185053,107.501779 Z M46.3487544,135.743772 C45.6654804,135.516014 44.7544484,135.288256 44.0711744,135.288256 C40.4270463,135.288256 37.2384342,138.24911 37.2384342,142.120996 C37.2384342,145.765125 40.1992883,148.953737 44.0711744,148.953737 C47.4875445,148.953737 50.4483986,146.220641 50.6761566,142.80427 L50.6761566,142.120996 C50.9039146,139.160142 48.8540925,136.654804 46.3487544,135.743772 Z M102.377224,189.950178 C101.69395,189.72242 101.238434,189.72242 100.55516,189.72242 C96.911032,189.72242 93.7224199,192.683274 93.7224199,196.55516 C93.7224199,200.199288 96.683274,203.3879 100.55516,203.3879 C104.199288,203.3879 107.3879,200.427046 107.3879,196.55516 L107.3879,196.55516 C107.3879,193.13879 105.11032,190.633452 102.377224,189.950178 Z M211.928826,134.604982 L211.245552,134.604982 C208.284698,134.83274 206.007117,137.11032 205.323843,140.071174 C205.323843,140.52669 205.096085,140.982206 205.096085,141.209964 C205.096085,144.854093 208.05694,148.042705 211.928826,148.042705 C215.572954,148.042705 218.761566,145.081851 218.761566,141.209964 C218.761566,137.338078 215.572954,134.604982 211.928826,134.604982 Z M183.914591,107.501779 L183.686833,107.501779 C180.725979,107.501779 178.220641,109.551601 177.309609,112.284698 C177.081851,112.967972 176.854093,113.651246 176.854093,114.33452 C176.854093,114.790036 176.854093,115.245552 177.081851,115.701068 C177.765125,118.661922 180.042705,120.711744 183.231317,120.939502 L183.686833,120.939502 C184.370107,120.939502 185.053381,120.711744 185.736655,120.483986 C188.469751,119.572954 190.519573,117.067616 190.519573,114.106762 L190.519573,113.879004 C190.291815,110.462633 187.330961,107.501779 183.914591,107.501779 Z M156.355872,135.97153 L155.672598,135.97153 C152.02847,135.97153 148.839858,138.932384 148.839858,142.80427 L148.839858,143.487544 C149.067616,146.448399 151.345196,148.725979 154.30605,149.409253 C154.761566,149.409253 155.217082,149.637011 155.672598,149.637011 L156.58363,149.637011 C159.544484,149.181495 161.822064,146.903915 162.27758,143.94306 L162.27758,143.032028 C162.27758,142.576512 162.27758,142.120996 162.049822,141.66548 C161.822064,138.704626 159.316726,136.427046 156.355872,135.97153 Z M183.231317,176.512456 C186.875445,176.512456 190.064057,173.551601 190.064057,169.679715 C190.064057,166.035587 187.103203,162.846975 183.231317,162.846975 C182.775801,162.846975 182.320285,162.846975 182.092527,163.074733 C179.131673,163.530249 177.081851,166.035587 176.626335,168.996441 L176.626335,169.679715 C176.398577,173.551601 179.359431,176.512456 183.231317,176.512456 Z" fill="#40AA94"></path>
    </g>
</svg>
